;Generated with Cura_SteamEngine 13.11.2
M109 T0 S220.000000
T0
;Sliced at: Sun 16:05:29
;Basic settings: Layer height: 0.25 Walls: 0.5 Fill: 30
;Print time: #P_TIME#
;Filament used: #F_AMNT#m #F_WGHT#g
;Filament cost: #F_COST#
G21        ;metric values
G90        ;absolute positioning
G28        ;home axes
G92 E0                  ;zero the extruded length
G1 F9000

;Layer count: 161
;LAYER:0
M107
G0 F5940 X87.00 Y57.55 Z0.35
;TYPE:SKIRT
G1 F1800 E0.00000
G1 F1140 X89.33 Y56.21 E0.07131
G1 X106.50 Y60.81 E0.54205
G1 X107.84 Y63.14 E0.61336
G1 X104.49 Y75.65 E0.95650
G1 X104.50 Y75.63 E0.95700
G1 X106.46 Y76.29 E1.01186
G1 X106.50 Y76.23 E1.01365
G1 X109.37 Y77.19 E1.09378
G1 X110.88 Y77.57 E1.13519
G1 X110.93 Y77.58 E1.13636
G1 X111.01 Y77.61 E1.13870
G1 X111.09 Y77.63 E1.14087
G1 X111.50 Y77.77 E1.15224
G1 X111.81 Y77.83 E1.16070
G1 X111.85 Y77.76 E1.16284
G1 X114.68 Y78.47 E1.24006
G1 X114.70 Y78.43 E1.24123
G1 X116.66 Y79.09 E1.29610
G1 X116.70 Y79.03 E1.29789
G1 X118.98 Y79.79 E1.36161
G1 X122.02 Y80.81 E1.44654
G1 X122.12 Y80.97 E1.45174
G1 X122.30 Y81.03 E1.45655
G1 X122.30 Y81.03 E1.45659
G1 X126.04 Y82.28 E1.56105
G1 X126.86 Y82.89 E1.58811
G1 X127.72 Y84.08 E1.62719
G1 X128.04 Y85.06 E1.65434
G1 X128.04 Y87.52 E1.71952
G1 X127.87 Y87.93 E1.73133
G1 X127.51 Y89.75 E1.78060
G1 X127.44 Y89.83 E1.78338
G1 X127.44 Y89.93 E1.78608
G1 X126.95 Y91.12 E1.82024
G1 X126.91 Y91.29 E1.82470
G1 X126.84 Y91.46 E1.82972
G1 X126.84 Y91.66 E1.83486
G1 X126.71 Y92.29 E1.85192
G1 X126.64 Y92.47 E1.85711
G1 X126.51 Y93.09 E1.87384
G1 X126.44 Y93.26 E1.87886
G1 X126.44 Y93.73 E1.89129
G1 X125.94 Y94.92 E1.92553
G1 X124.62 Y96.25 E1.97522
G1 X123.42 Y96.75 E2.00946
G1 X123.08 Y96.75 E2.01852
G1 X122.98 Y96.94 E2.02441
G1 X119.98 Y96.34 E2.10547
G1 X118.98 Y96.14 E2.13246
G1 X115.61 Y95.47 E2.22360
G1 X115.58 Y95.46 E2.22427
G1 X115.49 Y95.44 E2.22683
G1 X114.74 Y95.25 E2.24722
G1 X111.75 Y94.65 E2.32815
G1 X111.65 Y94.63 E2.33066
G1 X111.52 Y94.59 E2.33444
G1 X111.41 Y94.56 E2.33726
G1 X111.05 Y94.44 E2.34742
G1 X110.98 Y94.56 E2.35087
G1 X108.09 Y93.59 E2.43166
G1 X107.52 Y93.45 E2.44728
G1 X106.92 Y93.33 E2.46336
G1 X106.78 Y93.56 E2.47040
G1 X104.81 Y92.90 E2.52530
G1 X104.78 Y92.95 E2.52702
G1 X101.88 Y91.99 E2.60803
G1 X101.19 Y91.82 E2.62677
G1 X101.15 Y91.81 E2.62794
G1 X101.07 Y91.78 E2.63028
G1 X100.99 Y91.76 E2.63239
G1 X100.49 Y91.59 E2.64647
G1 X100.23 Y91.53 E2.65332
G1 X96.74 Y104.57 E3.01097
G1 X94.41 Y105.91 E3.08229
G1 X77.25 Y101.31 E3.55301
G1 X75.90 Y98.98 E3.62432
G1 X87.00 Y57.55 E4.76070
G0 F5940 X90.24 Y60.34
G0 X90.13 Y60.41
G0 X89.97 Y60.00
;TYPE:WALL-OUTER
G1 F1140 X104.05 Y63.77 E5.14685
G1 X93.77 Y102.12 E6.19861
G1 X79.70 Y98.35 E6.58475
G1 X89.97 Y60.00 E7.63654
G0 F5940 X90.33 Y60.28
;TYPE:FILL
G1 F1140 X101.74 Y71.69 E8.06413
G0 F5940 X101.59 Y72.25
G1 F1140 X89.98 Y60.64 E8.49929
G0 F5940 X89.83 Y61.19
G1 F1140 X101.44 Y72.81 E8.93445
G0 F5940 X101.30 Y73.36
G1 F1140 X89.68 Y61.75 E9.36961
G0 F5940 X89.53 Y62.31
G1 F1140 X101.15 Y73.92 E9.80477
G0 F5940 X101.00 Y74.48
G1 F1140 X89.38 Y62.87 E10.23993
G0 F5940 X89.23 Y63.42
G1 F1140 X100.85 Y75.04 E10.67509
G0 F5940 X100.70 Y75.60
G1 F1140 X89.08 Y63.98 E11.11027
G0 F5940 X88.93 Y64.54
G1 F1140 X100.55 Y76.15 E11.54545
G0 F5940 X100.40 Y76.71
G1 F1140 X88.78 Y65.10 E11.98061
G0 F5940 X88.64 Y65.66
G1 F1140 X100.25 Y77.27 E12.41577
G0 F5940 X100.10 Y77.83
G1 F1140 X88.49 Y66.21 E12.85094
G0 F5940 X88.34 Y66.77
G1 F1140 X99.95 Y78.38 E13.28610
G0 F5940 X99.80 Y78.94
G1 F1140 X88.19 Y67.33 E13.72125
G0 F5940 X88.04 Y67.89
G1 F1140 X99.65 Y79.50 E14.15642
G0 F5940 X99.50 Y80.06
G1 F1140 X87.89 Y68.44 E14.59158
G0 F5940 X87.74 Y69.00
G1 F1140 X99.35 Y80.61 E15.02674
G0 F5940 X99.20 Y81.17
G1 F1140 X87.59 Y69.56 E15.46192
G0 F5940 X87.44 Y70.12
G1 F1140 X99.06 Y81.73 E15.89710
G0 F5940 X98.91 Y82.29
G1 F1140 X87.29 Y70.67 E16.33226
G0 F5940 X87.14 Y71.23
G1 F1140 X98.75 Y82.85 E16.76744
G0 F5940 X98.61 Y83.40
G1 F1140 X86.99 Y71.79 E17.20260
G0 F5940 X86.84 Y72.35
G1 F1140 X98.46 Y83.96 E17.63774
G0 F5940 X98.31 Y84.52
G1 F1140 X86.69 Y72.90 E18.07292
G0 F5940 X86.54 Y73.46
G1 F1140 X98.16 Y85.08 E18.50808
G0 F5940 X98.01 Y85.63
G1 F1140 X86.39 Y74.02 E18.94322
G0 F5940 X86.25 Y74.58
G1 F1140 X97.86 Y86.19 E19.37840
G0 F5940 X97.71 Y86.75
G1 F1140 X86.09 Y75.14 E19.81358
G0 F5940 X85.95 Y75.69
G1 F1140 X97.56 Y87.31 E20.24874
G0 F5940 X97.41 Y87.86
G1 F1140 X85.80 Y76.25 E20.68394
G0 F5940 X85.65 Y76.81
G1 F1140 X97.26 Y88.42 E21.11910
G0 F5940 X97.11 Y88.98
G1 F1140 X85.50 Y77.37 E21.55424
G0 F5940 X85.35 Y77.92
G1 F1140 X96.96 Y89.54 E21.98942
G0 F5940 X96.81 Y90.09
G1 F1140 X85.20 Y78.48 E22.42456
G0 F5940 X85.05 Y79.04
G1 F1140 X96.66 Y90.65 E22.85970
G0 F5940 X96.51 Y91.21
G1 F1140 X84.90 Y79.60 E23.29488
G0 F5940 X84.75 Y80.15
G1 F1140 X96.36 Y91.77 E23.73004
G0 F5940 X96.22 Y92.33
G1 F1140 X84.60 Y80.71 E24.16520
G0 F5940 X84.45 Y81.27
G1 F1140 X96.07 Y92.88 E24.60040
G0 F5940 X95.92 Y93.44
G1 F1140 X84.30 Y81.83 E25.03556
G0 F5940 X84.15 Y82.39
G1 F1140 X95.77 Y94.00 E25.47072
G0 F5940 X95.62 Y94.56
G1 F1140 X84.00 Y82.94 E25.90589
G0 F5940 X83.85 Y83.50
G1 F1140 X95.47 Y95.11 E26.34104
G0 F5940 X95.32 Y95.67
G1 F1140 X83.70 Y84.06 E26.77620
G0 F5940 X83.56 Y84.61
G1 F1140 X95.17 Y96.23 E27.21137
G0 F5940 X95.02 Y96.79
G1 F1140 X83.41 Y85.17 E27.64652
G0 F5940 X83.26 Y85.73
G1 F1140 X94.87 Y97.34 E28.08168
G0 F5940 X94.72 Y97.90
G1 F1140 X83.11 Y86.29 E28.51687
G0 F5940 X82.96 Y86.85
G1 F1140 X94.57 Y98.46 E28.95203
G0 F5940 X94.42 Y99.02
G1 F1140 X82.81 Y87.40 E29.38721
G0 F5940 X82.66 Y87.96
G1 F1140 X94.27 Y99.58 E29.82239
G0 F5940 X94.12 Y100.13
G1 F1140 X82.51 Y88.52 E30.25753
G0 F5940 X82.36 Y89.08
G1 F1140 X93.97 Y100.69 E30.69269
G0 F5940 X93.82 Y101.25
G1 F1140 X82.21 Y89.63 E31.12787
G0 F5940 X82.06 Y90.19
G1 F1140 X93.67 Y101.81 E31.56301
G0 F5940 X92.85 Y101.69
G1 F1140 X81.91 Y90.75 E31.97288
G0 F5940 X81.76 Y91.31
G1 F1140 X91.88 Y101.43 E32.35216
G0 F5940 X90.92 Y101.17
G1 F1140 X81.61 Y91.86 E32.70084
G0 F5940 X81.46 Y92.42
G1 F1140 X89.95 Y100.91 E33.01893
G0 F5940 X88.99 Y100.65
G1 F1140 X81.31 Y92.98 E33.30641
G0 F5940 X81.16 Y93.54
G1 F1140 X88.02 Y100.39 E33.56331
G0 F5940 X87.05 Y100.14
G1 F1140 X81.01 Y94.10 E33.78962
G0 F5940 X80.86 Y94.65
G1 F1140 X86.09 Y99.88 E33.98532
G0 F5940 X85.12 Y99.62
G1 F1140 X80.72 Y95.21 E34.15042
G0 F5940 X80.57 Y95.77
G1 F1140 X84.16 Y99.36 E34.28495
G0 F5940 X83.19 Y99.10
G1 F1140 X80.42 Y96.33 E34.38889
G0 F5940 X80.27 Y96.88
G1 F1140 X82.22 Y98.84 E34.46226
G0 F5940 X81.26 Y98.58
G1 F1140 X80.12 Y97.44 E34.50501
G0 F5940 X79.97 Y98.00
G1 F1140 X80.29 Y98.32 E34.51717
G0 F5940 X80.34 Y98.16
G0 X101.73 Y71.09
G0 X101.89 Y71.13
G1 F1140 X91.30 Y60.54 E34.91418
G0 F5940 X92.26 Y60.80
G1 F1140 X102.04 Y70.58 E35.28063
G0 F5940 X102.19 Y70.02
G1 F1140 X93.23 Y61.06 E35.61647
G0 F5940 X94.19 Y61.31
G1 F1140 X102.34 Y69.46 E35.92171
G0 F5940 X102.49 Y68.90
G1 F1140 X95.16 Y61.57 E36.19638
G0 F5940 X96.13 Y61.83
G1 F1140 X102.64 Y68.35 E36.44045
G0 F5940 X102.79 Y67.79
G1 F1140 X97.09 Y62.09 E36.65390
G0 F5940 X98.06 Y62.35
G1 F1140 X102.94 Y67.23 E36.83679
G0 F5940 X103.09 Y66.67
G1 F1140 X99.03 Y62.61 E36.98906
G0 F5940 X99.99 Y62.87
G1 F1140 X103.24 Y66.11 E37.11074
G0 F5940 X103.39 Y65.56
G1 F1140 X100.96 Y63.13 E37.20183
G0 F5940 X101.92 Y63.39
G1 F1140 X103.54 Y65.00 E37.26232
G0 F5940 X103.69 Y64.44
G1 F1140 X102.89 Y63.65 E37.29220
G0 F5940 X102.52 Y64.66
G0 X100.40 Y83.19
;TYPE:WALL-OUTER
G1 F1140 X103.81 Y84.10 E37.38548
G1 X103.73 Y84.39 E37.39346
G1 X100.33 Y83.48 E37.48674
G1 X100.40 Y83.19 E37.49472
G0 F5940 X105.26 Y84.49
G1 F1140 X108.66 Y85.40 E37.58800
G1 X108.58 Y85.69 E37.59600
G1 X105.18 Y84.78 E37.68929
G1 X105.26 Y84.49 E37.69727
G0 F5940 X110.11 Y85.79
G1 F1140 X113.51 Y86.70 E37.79055
G1 X113.43 Y86.99 E37.79853
G1 X110.03 Y86.08 E37.89181
G1 X110.11 Y85.79 E37.89982
G0 F5940 X114.97 Y87.09
G1 F1140 X118.37 Y88.00 E37.99309
G1 X118.29 Y88.29 E38.00104
G1 X114.89 Y87.38 E38.09432
G1 X114.97 Y87.09 E38.10225
G0 F5940 X119.82 Y88.39
G1 F1140 X123.22 Y89.30 E38.19550
G1 X123.14 Y89.60 E38.20353
G1 X119.74 Y88.69 E38.29678
G1 X119.82 Y88.39 E38.30479
G0 F5940 X118.85 Y89.43
;TYPE:SUPPORT
G1 F1140 X122.90 Y90.52 E38.41604
G1 X123.50 Y91.75 E38.45236
G1 X122.99 Y92.94 E38.48683
G1 X122.05 Y93.44 E38.51505
G1 X120.16 Y93.06 E38.56612
G1 X120.16 Y93.06 E38.56614
G1 X119.53 Y92.93 E38.58314
G1 X119.53 Y92.94 E38.58320
G1 X118.53 Y92.73 E38.61018
G1 X118.53 Y92.73 E38.61024
G1 X117.53 Y92.53 E38.63729
G1 X116.19 Y92.26 E38.67345
G1 X116.15 Y92.26 E38.67437
G1 X115.43 Y92.08 E38.69403
G1 X113.73 Y91.73 E38.74008
G1 X113.73 Y91.73 E38.74014
G1 X112.44 Y91.48 E38.77490
G1 X112.35 Y91.45 E38.77737
G1 X111.79 Y91.27 E38.79300
G1 X110.21 Y90.87 E38.83621
G1 X110.15 Y90.85 E38.83775
G1 X109.00 Y90.47 E38.86999
G1 X108.23 Y90.28 E38.89101
G1 X107.26 Y90.08 E38.91715
G1 X106.08 Y89.88 E38.94905
G1 X105.96 Y89.86 E38.95217
G1 X104.79 Y89.46 E38.98499
G1 X104.03 Y89.27 E39.00576
G1 X103.97 Y89.26 E39.00736
G1 X102.81 Y88.87 E39.03971
G1 X102.81 Y88.87 E39.03973
G1 X102.01 Y88.67 E39.06142
G1 X101.96 Y88.66 E39.06291
G1 X101.39 Y88.47 E39.07894
G1 X101.38 Y88.46 E39.07902
G1 X99.47 Y87.98 E39.13122
G1 X98.83 Y86.90 E39.16452
G1 X99.31 Y85.11 E39.21381
G1 X100.39 Y84.48 E39.24671
G1 X104.26 Y85.52 E39.35274
G1 X104.26 Y85.52 E39.35298
G1 X109.17 Y86.83 E39.48743
G1 X109.17 Y86.83 E39.48749
G1 X113.97 Y88.12 E39.61905
G1 X113.97 Y88.12 E39.61932
G1 X118.83 Y89.42 E39.75262
G1 X118.85 Y89.43 E39.75302
G0 F5940 X117.50 Y88.99
G1 F1140 X117.50 Y92.61 E39.84885
G0 F5940 X116.98 Y92.50
G1 F1140 X123.26 Y92.50 E40.01520
G0 F5940 X122.50 Y93.28
G1 F1140 X122.50 Y90.33 E40.09349
G0 F5940 X122.45 Y90.50
G0 X112.53 Y91.39
G0 X112.50 Y91.56
G1 F1140 X112.50 Y87.65 E40.19719
G0 F5940 X111.95 Y87.50
G1 F1140 X99.10 Y87.50 E40.53759
G0 F5940 X99.25 Y87.41
G0 X102.54 Y88.70
G0 X102.50 Y88.87
G1 F1140 X102.50 Y84.97 E40.64094
G0 F5940 X102.45 Y85.14
G0 X107.46 Y86.48
G0 X107.50 Y86.31
G1 F1140 X107.50 Y90.21 E40.74414
G0 F5940 X109.71 Y84.70
G1 F1140 X104.73 Y83.37 E40.88067
G1 X104.72 Y83.36 E40.88117
G1 X100.96 Y82.36 E40.98412
G1 X100.34 Y81.28 E41.01705
G1 X100.93 Y79.07 E41.07772
G1 X102.07 Y78.45 E41.11205
G1 X102.27 Y78.52 E41.11760
G1 X102.27 Y78.52 E41.11763
G1 X103.06 Y78.72 E41.13901
G1 X103.06 Y78.71 E41.13905
G1 X103.86 Y78.91 E41.16082
G1 X103.91 Y78.93 E41.16234
G1 X104.46 Y79.11 E41.17768
G1 X104.47 Y79.12 E41.17809
G1 X105.25 Y79.31 E41.19926
G1 X105.30 Y79.33 E41.20077
G1 X106.47 Y79.72 E41.23332
G1 X106.47 Y79.72 E41.23340
G1 X107.25 Y79.91 E41.25471
G1 X107.31 Y79.93 E41.25618
G1 X108.47 Y80.32 E41.28864
G1 X108.47 Y80.32 E41.28872
G1 X109.26 Y80.52 E41.31031
G1 X110.06 Y80.71 E41.33204
G1 X110.11 Y80.73 E41.33354
G1 X110.67 Y80.92 E41.34907
G1 X112.64 Y81.31 E41.40254
G1 X112.68 Y81.32 E41.40347
G1 X114.26 Y81.72 E41.44676
G1 X114.32 Y81.73 E41.44827
G1 X114.73 Y81.87 E41.45970
G1 X114.73 Y81.87 E41.45973
G1 X116.11 Y82.33 E41.49832
G1 X116.11 Y82.33 E41.49835
G1 X116.67 Y82.52 E41.51409
G1 X116.69 Y82.52 E41.51450
G1 X117.45 Y82.71 E41.53531
G1 X117.50 Y82.73 E41.53682
G1 X119.24 Y83.31 E41.58521
G1 X119.31 Y83.33 E41.58724
G1 X119.41 Y83.37 E41.59006
G1 X119.77 Y83.55 E41.60072
G1 X119.77 Y83.55 E41.60080
G1 X120.54 Y83.94 E41.62355
G1 X121.25 Y84.11 E41.64305
G1 X121.31 Y84.13 E41.64457
G1 X122.63 Y84.57 E41.68152
G1 X122.63 Y84.57 E41.68155
G1 X123.71 Y84.93 E41.71174
G1 X123.72 Y84.93 E41.71195
G1 X124.36 Y85.16 E41.72995
G1 X124.90 Y86.33 E41.76410
G1 X124.29 Y87.83 E41.80693
G1 X123.27 Y88.33 E41.83699
G1 X119.29 Y87.27 E41.94623
G1 X119.28 Y87.26 E41.94664
G1 X114.42 Y85.96 E42.07994
G1 X114.41 Y85.96 E42.08024
G1 X109.71 Y84.70 E42.20897
G0 F5940 X109.73 Y84.60
G0 X107.55 Y84.02
G0 X107.50 Y84.18
G1 F1140 X107.50 Y79.92 E42.32208
G0 F5940 X107.44 Y80.08
G0 X110.61 Y81.11
G0 X112.47 Y81.38
G0 X112.50 Y81.21
G1 F1140 X112.50 Y85.52 E42.43645
G0 F5940 X112.54 Y85.36
G0 X117.55 Y86.70
G0 X117.50 Y86.86
G1 F1140 X117.50 Y82.65 E42.54810
G0 F5940 X116.91 Y82.50
G1 F1140 X101.22 Y82.50 E42.96387
G0 F5940 X102.50 Y82.84
G1 F1140 X102.50 Y78.50 E43.07899
G0 F5940 X102.46 Y78.67
G0 X119.92 Y87.33
G0 X119.87 Y87.50
G1 F1140 X124.50 Y87.50 E43.20155
G0 F5940 X124.34 Y87.44
G0 X122.55 Y88.04
G0 X122.50 Y88.20
G1 F1140 X122.50 Y84.45 E43.30101
;LAYER:1
G0 F9000 X119.82 Y88.39 Z0.60
;TYPE:WALL-OUTER
G1 F1320 X123.22 Y89.30 E43.36763
G1 X123.14 Y89.60 E43.37337
G1 X119.74 Y88.69 E43.44000
G1 X119.82 Y88.39 E43.44576
G0 F9000 X118.37 Y88.00
G1 F1320 X118.29 Y88.30 E43.45152
G1 X114.89 Y87.39 E43.51814
G1 X114.97 Y87.09 E43.52389
G1 X118.37 Y88.00 E43.59052
G0 F9000 X113.51 Y86.70
G1 F1320 X113.43 Y87.00 E43.59628
G1 X110.03 Y86.08 E43.66291
G1 X110.11 Y85.79 E43.66867
G1 X113.51 Y86.70 E43.73528
G0 F9000 X108.66 Y85.40
G1 F1320 X108.58 Y85.69 E43.74105
G1 X105.18 Y84.78 E43.80766
G1 X105.26 Y84.49 E43.81342
G1 X108.66 Y85.40 E43.88005
G0 F9000 X103.81 Y84.10
G1 F1320 X103.73 Y84.39 E43.88581
G1 X100.33 Y83.48 E43.95242
G1 X100.41 Y83.19 E43.95818
G1 X103.81 Y84.10 E44.02479
G0 F9000 X98.61 Y82.71
G0 X103.64 Y63.94
G0 X104.05 Y63.77
G1 F1320 X93.77 Y102.12 E44.77602
G1 X79.70 Y98.35 E45.05182
G1 X89.97 Y60.00 E45.80306
G1 X104.05 Y63.77 E46.07887
G0 F9000 X103.76 Y64.18
;TYPE:FILL
G1 F1320 X83.64 Y84.30 E46.61721
G0 F9000 X83.38 Y85.26
G1 F1320 X103.50 Y65.15 E47.15555
G0 F9000 X103.24 Y66.11
G1 F1320 X83.12 Y86.23 E47.69390
G0 F9000 X82.86 Y87.19
G1 F1320 X102.98 Y67.08 E48.23224
G0 F9000 X102.72 Y68.04
G1 F1320 X82.61 Y88.16 E48.77058
G0 F9000 X82.35 Y89.12
G1 F1320 X102.46 Y69.01 E49.30893
G0 F9000 X102.20 Y69.98
G1 F1320 X82.09 Y90.09 E49.84727
G0 F9000 X81.83 Y91.06
G1 F1320 X101.94 Y70.94 E50.38561
G0 F9000 X101.69 Y71.91
G1 F1320 X81.57 Y92.02 E50.92396
G0 F9000 X81.31 Y92.99
G1 F1320 X101.43 Y72.87 E51.46230
G0 F9000 X101.17 Y73.84
G1 F1320 X81.05 Y93.95 E52.00064
G0 F9000 X80.79 Y94.92
G1 F1320 X100.91 Y74.81 E52.53899
G0 F9000 X100.65 Y75.77
G1 F1320 X80.53 Y95.89 E53.07733
G0 F9000 X80.28 Y96.85
G1 F1320 X100.39 Y76.74 E53.61567
G0 F9000 X100.13 Y77.70
G1 F1320 X80.02 Y97.82 E54.15402
G0 F9000 X80.23 Y98.31
G1 F1320 X99.87 Y78.67 E54.67962
G0 F9000 X99.61 Y79.64
G1 F1320 X80.79 Y98.46 E55.18337
G0 F9000 X81.35 Y98.61
G1 F1320 X99.36 Y80.60 E55.66527
G0 F9000 X99.10 Y81.57
G1 F1320 X81.91 Y98.76 E56.12530
G0 F9000 X82.47 Y98.91
G1 F1320 X98.84 Y82.53 E56.56350
G0 F9000 X98.58 Y83.50
G1 F1320 X83.02 Y99.06 E56.97983
G0 F9000 X83.58 Y99.20
G1 F1320 X98.32 Y84.47 E57.37431
G0 F9000 X98.06 Y85.43
G1 F1320 X84.14 Y99.35 E57.74693
G0 F9000 X84.70 Y99.50
G1 F1320 X97.80 Y86.40 E58.09768
G0 F9000 X97.54 Y87.36
G1 F1320 X85.25 Y99.65 E58.42657
G0 F9000 X85.81 Y99.80
G1 F1320 X97.28 Y88.33 E58.73363
G0 F9000 X97.03 Y89.30
G1 F1320 X86.37 Y99.95 E59.01881
G0 F9000 X86.93 Y100.10
G1 F1320 X96.77 Y90.26 E59.28214
G0 F9000 X96.51 Y91.23
G1 F1320 X87.49 Y100.25 E59.52360
G0 F9000 X88.04 Y100.40
G1 F1320 X96.25 Y92.19 E59.74323
G0 F9000 X95.99 Y93.16
G1 F1320 X88.60 Y100.55 E59.94101
G0 F9000 X89.16 Y100.70
G1 F1320 X95.73 Y94.12 E60.11694
G0 F9000 X95.47 Y95.09
G1 F1320 X89.72 Y100.85 E60.27097
G0 F9000 X90.27 Y101.00
G1 F1320 X95.21 Y96.06 E60.40317
G0 F9000 X94.95 Y97.02
G1 F1320 X90.83 Y101.15 E60.51352
G0 F9000 X91.39 Y101.30
G1 F1320 X94.70 Y97.99 E60.60200
G0 F9000 X94.44 Y98.96
G1 F1320 X91.95 Y101.44 E60.66862
G0 F9000 X92.50 Y101.59
G1 F1320 X94.18 Y99.92 E60.71340
G0 F9000 X93.92 Y100.89
G1 F1320 X93.06 Y101.74 E60.73633
G0 F9000 X93.11 Y101.58
G0 X84.07 Y83.37
G0 X83.90 Y83.33
G1 F1320 X103.44 Y63.79 E61.25923
G0 F9000 X102.88 Y63.64
G1 F1320 X84.16 Y82.36 E61.76028
G0 F9000 X84.42 Y81.40
G1 F1320 X102.32 Y63.49 E62.23947
G0 F9000 X101.77 Y63.34
G1 F1320 X84.68 Y80.43 E62.69681
G0 F9000 X84.94 Y79.47
G1 F1320 X101.21 Y63.19 E63.13229
G0 F9000 X100.65 Y63.04
G1 F1320 X85.19 Y78.50 E63.54591
G0 F9000 X85.45 Y77.53
G1 F1320 X100.09 Y62.90 E63.93768
G0 F9000 X99.53 Y62.74
G1 F1320 X85.71 Y76.57 E64.30760
G0 F9000 X85.97 Y75.60
G1 F1320 X98.98 Y62.60 E64.65565
