;Generated with Cura_SteamEngine 13.11.2
;Sliced at: Wed 19:35:00
;Basic settings: Layer height: 0.25 Walls: 0.5 Fill: 60
;Print time: #P_TIME#
;Filament used: #F_AMNT#m #F_WGHT#g
;Filament cost: #F_COST#
G21        ;metric values
G90        ;absolute positioning
G28        ;home axes
G92 E0                  ;zero the extruded length
G1 F9000
M109 T0 S220.000000
T0

;Layer count: 160
;LAYER:0
M107
G0 F5940 X71.75 Y73.65 Z0.35
;TYPE:SKIRT
G1 F1800 E0.00000
G1 F1140 X73.65 Y71.75 E0.07130
G1 X91.35 Y71.75 E0.54007
G1 X93.25 Y73.65 E0.61139
G1 X93.25 Y86.75 E0.95838
G1 X104.95 Y86.75 E1.26845
G1 X105.02 Y86.75 E1.27017
G1 X113.24 Y87.08 E1.48818
G1 X115.97 Y87.19 E1.56049
G1 X117.11 Y87.70 E1.59377
G1 X118.38 Y89.02 E1.64208
G1 X118.85 Y90.19 E1.67548
G1 X118.85 Y99.61 E1.92516
G1 X118.38 Y100.78 E1.95856
G1 X117.11 Y102.09 E2.00685
G1 X115.97 Y102.61 E2.04019
G1 X113.24 Y102.72 E2.11244
G1 X112.17 Y102.76 E2.14071
G1 X110.06 Y102.85 E2.19687
G1 X105.11 Y103.04 E2.32815
G1 X105.07 Y103.05 E2.32915
G1 X104.96 Y103.05 E2.33202
G1 X93.25 Y103.05 E2.64227
G1 X93.25 Y116.35 E2.99453
G1 X91.35 Y118.25 E3.06587
G1 X73.65 Y118.25 E3.53464
G1 X71.75 Y116.35 E3.60596
G1 X71.75 Y73.65 E4.73708
G0 F5940 X75.60 Y75.51
G0 X75.60 Y75.51
G0 X75.25 Y75.25
;TYPE:WALL-OUTER
G1 F1140 X89.75 Y75.25 E5.12125
G1 X89.75 Y114.75 E6.16777
G1 X75.25 Y114.75 E6.55194
G1 X75.25 Y75.25 E7.59846
G0 F5940 X75.42 Y75.78
;TYPE:FILL
G1 F1140 X89.57 Y89.93 E8.12864
G0 F5940 X89.57 Y90.64
G1 F1140 X75.42 Y76.48 E8.65882
G0 F5940 X75.42 Y77.19
G1 F1140 X89.57 Y91.34 E9.18900
G0 F5940 X89.57 Y92.05
G1 F1140 X75.42 Y77.90 E9.71918
G0 F5940 X75.42 Y78.61
G1 F1140 X89.57 Y92.76 E10.24936
G0 F5940 X89.57 Y93.46
G1 F1140 X75.42 Y79.31 E10.77953
G0 F5940 X75.42 Y80.02
G1 F1140 X89.57 Y94.17 E11.30971
G0 F5940 X89.57 Y94.88
G1 F1140 X75.42 Y80.73 E11.83989
G0 F5940 X75.42 Y81.44
G1 F1140 X89.57 Y95.58 E12.37007
G0 F5940 X89.57 Y96.29
G1 F1140 X75.42 Y82.14 E12.90025
G0 F5940 X75.42 Y82.85
G1 F1140 X89.57 Y97.00 E13.43043
G0 F5940 X89.57 Y97.71
G1 F1140 X75.42 Y83.56 E13.96061
G0 F5940 X75.42 Y84.26
G1 F1140 X89.57 Y98.41 E14.49079
G0 F5940 X89.57 Y99.12
G1 F1140 X75.42 Y84.97 E15.02097
G0 F5940 X75.42 Y85.68
G1 F1140 X89.57 Y99.83 E15.55113
G0 F5940 X89.57 Y100.53
G1 F1140 X75.42 Y86.39 E16.08131
G0 F5940 X75.42 Y87.09
G1 F1140 X89.57 Y101.24 E16.61149
G0 F5940 X89.57 Y101.95
G1 F1140 X75.42 Y87.80 E17.14167
G0 F5940 X75.42 Y88.51
G1 F1140 X89.57 Y102.66 E17.67185
G0 F5940 X89.57 Y103.36
G1 F1140 X75.42 Y89.21 E18.20203
G0 F5940 X75.42 Y89.92
G1 F1140 X89.57 Y104.07 E18.73221
G0 F5940 X89.57 Y104.78
G1 F1140 X75.42 Y90.63 E19.26239
G0 F5940 X75.42 Y91.33
G1 F1140 X89.57 Y105.48 E19.79257
G0 F5940 X89.57 Y106.19
G1 F1140 X75.42 Y92.04 E20.32275
G0 F5940 X75.42 Y92.75
G1 F1140 X89.57 Y106.90 E20.85291
G0 F5940 X89.57 Y107.61
G1 F1140 X75.42 Y93.46 E21.38309
G0 F5940 X75.42 Y94.16
G1 F1140 X89.57 Y108.31 E21.91327
G0 F5940 X89.57 Y109.02
G1 F1140 X75.42 Y94.87 E22.44346
G0 F5940 X75.42 Y95.58
G1 F1140 X89.57 Y109.73 E22.97364
G0 F5940 X89.57 Y110.43
G1 F1140 X75.42 Y96.28 E23.50382
G0 F5940 X75.42 Y96.99
G1 F1140 X89.57 Y111.14 E24.03400
G0 F5940 X89.57 Y111.85
G1 F1140 X75.42 Y97.70 E24.56418
G0 F5940 X75.42 Y98.41
G1 F1140 X89.57 Y112.56 E25.09436
G0 F5940 X89.57 Y113.26
G1 F1140 X75.42 Y99.11 E25.62452
G0 F5940 X75.42 Y99.82
G1 F1140 X89.57 Y113.97 E26.15470
G0 F5940 X89.47 Y114.57
G1 F1140 X75.42 Y100.53 E26.68100
G0 F5940 X75.42 Y101.23
G1 F1140 X88.76 Y114.57 E27.18081
G0 F5940 X88.06 Y114.57
G1 F1140 X75.42 Y101.94 E27.65413
G0 F5940 X75.42 Y102.65
G1 F1140 X87.35 Y114.57 E28.10097
G0 F5940 X86.64 Y114.57
G1 F1140 X75.42 Y103.36 E28.52131
G0 F5940 X75.42 Y104.06
G1 F1140 X85.94 Y114.57 E28.91516
G0 F5940 X85.23 Y114.57
G1 F1140 X75.42 Y104.77 E29.28250
G0 F5940 X75.42 Y105.48
G1 F1140 X84.52 Y114.57 E29.62335
G0 F5940 X83.81 Y114.57
G1 F1140 X75.42 Y106.18 E29.93769
G0 F5940 X75.42 Y106.89
G1 F1140 X83.11 Y114.57 E30.22555
G0 F5940 X82.40 Y114.57
G1 F1140 X75.42 Y107.60 E30.48691
G0 F5940 X75.42 Y108.31
G1 F1140 X81.69 Y114.57 E30.72178
G0 F5940 X80.99 Y114.57
G1 F1140 X75.42 Y109.01 E30.93016
G0 F5940 X75.42 Y109.72
G1 F1140 X80.28 Y114.57 E31.11205
G0 F5940 X79.57 Y114.57
G1 F1140 X75.42 Y110.43 E31.26745
G0 F5940 X75.42 Y111.13
G1 F1140 X78.86 Y114.57 E31.39636
G0 F5940 X78.16 Y114.57
G1 F1140 X75.42 Y111.84 E31.49877
G0 F5940 X75.42 Y112.55
G1 F1140 X77.45 Y114.57 E31.57466
G0 F5940 X76.74 Y114.57
G1 F1140 X75.42 Y113.25 E31.62406
G0 F5940 X75.42 Y113.96
G1 F1140 X76.04 Y114.57 E31.64697
G0 F5940 X76.04 Y114.40
G0 X89.40 Y89.22
G0 X89.57 Y89.22
G1 F1140 X75.78 Y75.42 E32.16391
G0 F5940 X76.48 Y75.42
G1 F1140 X89.57 Y88.51 E32.65435
G0 F5940 X89.57 Y87.81
G1 F1140 X77.19 Y75.42 E33.11831
G0 F5940 X77.90 Y75.42
G1 F1140 X89.57 Y87.10 E33.55575
G0 F5940 X89.57 Y86.39
G1 F1140 X78.61 Y75.42 E33.96671
G0 F5940 X79.31 Y75.42
G1 F1140 X89.57 Y85.69 E34.35116
G0 F5940 X89.57 Y84.98
G1 F1140 X80.02 Y75.42 E34.70911
G0 F5940 X80.73 Y75.42
G1 F1140 X89.57 Y84.27 E35.04058
G0 F5940 X89.57 Y83.56
G1 F1140 X81.44 Y75.42 E35.34555
G0 F5940 X82.14 Y75.42
G1 F1140 X89.57 Y82.86 E35.62404
G0 F5940 X89.57 Y82.15
G1 F1140 X82.85 Y75.42 E35.87603
G0 F5940 X83.56 Y75.42
G1 F1140 X89.57 Y81.44 E36.10154
G0 F5940 X89.57 Y80.74
G1 F1140 X84.26 Y75.42 E36.30055
G0 F5940 X84.97 Y75.42
G1 F1140 X89.57 Y80.03 E36.47306
G0 F5940 X89.57 Y79.32
G1 F1140 X85.68 Y75.42 E36.61905
G0 F5940 X86.39 Y75.42
G1 F1140 X89.57 Y78.61 E36.73856
G0 F5940 X89.57 Y77.91
G1 F1140 X87.09 Y75.42 E36.83158
G0 F5940 X87.80 Y75.42
G1 F1140 X89.57 Y77.20 E36.89810
G0 F5940 X89.57 Y76.49
G1 F1140 X88.51 Y75.42 E36.93814
G0 F5940 X89.21 Y75.42
G1 F1140 X89.57 Y75.79 E36.95168
G0 F5940 X88.50 Y76.50
G0 X91.58 Y90.00
;TYPE:SUPPORT
G1 F1140 X104.93 Y90.00 E37.30543
G1 X108.46 Y90.14 E37.39895
G1 X108.79 Y90.16 E37.40770
G1 X108.79 Y90.15 E37.40773
G1 X109.93 Y90.20 E37.43799
G1 X114.76 Y90.39 E37.56619
G1 X115.60 Y91.27 E37.59819
G1 X115.60 Y98.53 E37.79075
G1 X114.76 Y99.40 E37.82276
G1 X109.06 Y99.63 E37.97395
G1 X109.06 Y99.63 E37.97399
G1 X104.90 Y99.80 E38.08440
G1 X104.86 Y99.80 E38.08522
G1 X91.58 Y99.80 E38.43725
G1 X90.70 Y98.92 E38.47016
G1 X90.70 Y90.88 E38.68326
G1 X91.58 Y90.00 E38.71615
G0 F5940 X92.50 Y89.92
G1 F1140 X92.50 Y99.88 E38.97977
G0 F5940 X92.50 Y99.70
G0 X90.80 Y97.50
G0 X90.62 Y97.50
G1 F1140 X115.67 Y97.50 E39.64345
G0 F5940 X115.50 Y97.50
G0 X112.49 Y99.40
G0 X112.50 Y99.57
G1 F1140 X112.50 Y90.23 E39.89094
G0 F5940 X112.49 Y90.40
G0 X115.50 Y92.50
G0 X115.67 Y92.50
G1 F1140 X90.62 Y92.50 E40.55462
G0 F5940 X90.80 Y92.50
G0 X97.50 Y90.10
G0 X97.50 Y89.92
G1 F1140 X97.50 Y99.88 E40.81824
G0 F5940 X97.50 Y99.70
G0 X102.50 Y99.70
G0 X102.50 Y99.88
G1 F1140 X102.50 Y89.92 E41.08185
G0 F5940 X102.50 Y90.10
G0 X107.49 Y90.20
G0 X107.50 Y90.03
G1 F1140 X107.50 Y99.77 E41.33996
;LAYER:1
G0 F9000 X89.75 Y114.75 Z0.60
;TYPE:WALL-OUTER
G1 F1320 X75.25 Y114.75 E41.61437
G1 X75.25 Y75.25 E42.36188
G1 X89.75 Y75.25 E42.63629
G1 X89.75 Y114.75 E43.38381
G0 F9000 X89.43 Y114.57
;TYPE:FILL
G1 F1320 X89.57 Y114.42 E43.38777
G0 F9000 X89.57 Y113.72
G1 F1320 X88.72 Y114.57 E43.41065
G0 F9000 X88.01 Y114.57
G1 F1320 X89.57 Y113.01 E43.45245
G0 F9000 X89.57 Y112.30
G1 F1320 X87.31 Y114.57 E43.51318
G0 F9000 X86.60 Y114.57
G1 F1320 X89.57 Y111.60 E43.59284
G0 F9000 X89.57 Y110.89
G1 F1320 X85.89 Y114.57 E43.69144
G0 F9000 X85.18 Y114.57
G1 F1320 X89.57 Y110.18 E43.80895
G0 F9000 X89.57 Y109.47
G1 F1320 X84.48 Y114.57 E43.94539
G0 F9000 X83.77 Y114.57
G1 F1320 X89.57 Y108.77 E44.10075
G0 F9000 X89.57 Y108.06
G1 F1320 X83.06 Y114.57 E44.27504
G0 F9000 X82.36 Y114.57
G1 F1320 X89.57 Y107.35 E44.46824
G0 F9000 X89.57 Y106.65
G1 F1320 X81.65 Y114.57 E44.68037
G0 F9000 X80.94 Y114.57
G1 F1320 X89.57 Y105.94 E44.91141
G0 F9000 X89.57 Y105.23
G1 F1320 X80.23 Y114.57 E45.16140
G0 F9000 X79.53 Y114.57
G1 F1320 X89.57 Y104.53 E45.43031
G0 F9000 X89.57 Y103.82
G1 F1320 X78.82 Y114.57 E45.71815
G0 F9000 X78.11 Y114.57
G1 F1320 X89.57 Y103.11 E46.02491
G0 F9000 X89.57 Y102.40
G1 F1320 X77.41 Y114.57 E46.35059
G0 F9000 X76.70 Y114.57
G1 F1320 X89.57 Y101.70 E46.69520
G0 F9000 X89.57 Y100.99
G1 F1320 X75.99 Y114.57 E47.05872
G0 F9000 X75.42 Y114.43
G1 F1320 X89.57 Y100.28 E47.43742
G0 F9000 X89.57 Y99.58
G1 F1320 X75.42 Y113.73 E47.81612
G0 F9000 X75.42 Y113.02
G1 F1320 X89.57 Y98.87 E48.19481
G0 F9000 X89.57 Y98.16
G1 F1320 X75.42 Y112.31 E48.57351
G0 F9000 X75.42 Y111.60
G1 F1320 X89.57 Y97.45 E48.95221
G0 F9000 X89.57 Y96.75
G1 F1320 X75.42 Y110.90 E49.33091
G0 F9000 X75.42 Y110.19
G1 F1320 X89.57 Y96.04 E49.70961
G0 F9000 X89.57 Y95.33
G1 F1320 X75.42 Y109.48 E50.08831
G0 F9000 X75.42 Y108.78
G1 F1320 X89.57 Y94.63 E50.46701
G0 F9000 X89.57 Y93.92
G1 F1320 X75.42 Y108.07 E50.84571
G0 F9000 X75.42 Y107.36
G1 F1320 X89.57 Y93.21 E51.22441
G0 F9000 X89.57 Y92.50
G1 F1320 X75.42 Y106.66 E51.60311
G0 F9000 X75.42 Y105.95
G1 F1320 X89.57 Y91.80 E51.98180
G0 F9000 X89.57 Y91.09
G1 F1320 X75.42 Y105.24 E52.36050
G0 F9000 X75.42 Y104.53
G1 F1320 X89.57 Y90.38 E52.73920
G0 F9000 X89.57 Y89.68
G1 F1320 X75.42 Y103.83 E53.11790
G0 F9000 X75.42 Y103.12
G1 F1320 X89.57 Y88.97 E53.49660
G0 F9000 X89.57 Y88.26
G1 F1320 X75.42 Y102.41 E53.87530
G0 F9000 X75.42 Y101.70
G1 F1320 X89.57 Y87.56 E54.25400
G0 F9000 X89.57 Y86.85
G1 F1320 X75.42 Y101.00 E54.63270
G0 F9000 X75.42 Y100.29
G1 F1320 X89.57 Y86.14 E55.01140
G0 F9000 X89.57 Y85.43
G1 F1320 X75.42 Y99.58 E55.39009
G0 F9000 X75.42 Y98.88
G1 F1320 X89.57 Y84.73 E55.76879
G0 F9000 X89.57 Y84.02
G1 F1320 X75.42 Y98.17 E56.14749
G0 F9000 X75.42 Y97.46
G1 F1320 X89.57 Y83.31 E56.52619
G0 F9000 X89.57 Y82.61
G1 F1320 X75.42 Y96.75 E56.90489
G0 F9000 X75.42 Y96.05
G1 F1320 X89.57 Y81.90 E57.28359
G0 F9000 X89.57 Y81.19
G1 F1320 X75.42 Y95.34 E57.66229
G0 F9000 X75.42 Y94.63
G1 F1320 X89.57 Y80.48 E58.04099
G0 F9000 X89.57 Y79.78
G1 F1320 X75.42 Y93.93 E58.41969
G0 F9000 X75.42 Y93.22
G1 F1320 X89.57 Y79.07 E58.79839
G0 F9000 X89.57 Y78.36
G1 F1320 X75.42 Y92.51 E59.17709
G0 F9000 X75.42 Y91.81
G1 F1320 X89.57 Y77.66 E59.55579
G0 F9000 X89.57 Y76.95
G1 F1320 X75.42 Y91.10 E59.93449
G0 F9000 X75.42 Y90.39
G1 F1320 X89.57 Y76.24 E60.31319
G0 F9000 X89.57 Y75.53
G1 F1320 X75.42 Y89.68 E60.69189
G0 F9000 X75.42 Y88.98
G1 F1320 X88.98 Y75.42 E61.05462
G0 F9000 X88.27 Y75.42
G1 F1320 X75.42 Y88.27 E61.39842
G0 F9000 X75.42 Y87.56
G1 F1320 X87.56 Y75.42 E61.72330
G0 F9000 X86.86 Y75.42
G1 F1320 X75.42 Y86.86 E62.02925
G0 F9000 X75.42 Y86.15
G1 F1320 X86.15 Y75.42 E62.31626
G0 F9000 X85.44 Y75.42
G1 F1320 X75.42 Y85.44 E62.58435
G0 F9000 X75.42 Y84.73
G1 F1320 X84.73 Y75.42 E62.83352
G0 F9000 X84.03 Y75.42
G1 F1320 X75.42 Y84.03 E63.06376
G0 F9000 X75.42 Y83.32
G1 F1320 X83.32 Y75.42 E63.27508
G0 F9000 X82.61 Y75.42
G1 F1320 X75.42 Y82.61 E63.46748
G0 F9000 X75.42 Y81.91
G1 F1320 X81.91 Y75.42 E63.64096
G0 F9000 X81.20 Y75.42
G1 F1320 X75.42 Y81.20 E63.79552
G0 F9000 X75.42 Y80.49
G1 F1320 X80.49 Y75.42 E63.93116
G0 F9000 X79.78 Y75.42
G1 F1320 X75.42 Y79.78 E64.04785
G0 F9000 X75.42 Y79.08
G1 F1320 X79.08 Y75.42 E64.14561
G0 F9000 X78.37 Y75.42
G1 F1320 X75.42 Y78.37 E64.22446
G0 F9000 X75.42 Y77.66
G1 F1320 X77.66 Y75.42 E64.28438
G0 F9000 X76.96 Y75.42
G1 F1320 X75.42 Y76.96 E64.32538
G0 F9000 X75.42 Y76.25
G1 F1320 X76.25 Y75.42 E64.34746
G0 F9000 X75.54 Y75.42
G1 F1320 X75.42 Y75.54 E64.35062
G0 F9000 X76.50 Y76.50
G0 X90.70 Y90.88
;TYPE:SUPPORT
G1 F1320 X91.58 Y90.00 E64.37412
G1 X104.93 Y90.00 E64.62680
G1 X108.46 Y90.14 E64.69360
G1 X108.79 Y90.16 E64.69985
G1 X108.79 Y90.15 E64.69987
G1 X109.93 Y90.20 E64.72148
G1 X114.76 Y90.39 E64.81305
G1 X115.60 Y91.27 E64.83591
G1 X115.60 Y98.53 E64.97345
G1 X114.76 Y99.40 E64.99631
G1 X109.06 Y99.63 E65.10431
G1 X109.06 Y99.63 E65.10434
G1 X104.90 Y99.80 E65.18320
G1 X104.86 Y99.80 E65.18379
G1 X91.58 Y99.80 E65.43524
G1 X90.70 Y98.92 E65.45875
G1 X90.70 Y90.88 E65.61096
G0 F9000 X90.78 Y90.94
G0 X90.80 Y92.50
G0 X90.62 Y92.50
G1 F1320 X115.67 Y92.50 E66.08501
G0 F9000 X115.50 Y92.50
G0 X112.49 Y90.40
G0 X112.50 Y90.23
G1 F1320 X112.50 Y99.57 E66.26179
G0 F9000 X112.49 Y99.40
G0 X115.50 Y97.50
G0 X115.67 Y97.50
G1 F1320 X90.62 Y97.50 E66.73585
G0 F9000 X90.80 Y97.50
G0 X92.50 Y99.70
G0 X92.50 Y99.88
G1 F1320 X92.50 Y89.92 E66.92415
G0 F9000 X92.50 Y90.10
G0 X97.50 Y90.10
G0 X97.50 Y89.92
G1 F1320 X97.50 Y99.88 E67.11244
G0 F9000 X97.50 Y99.70
G0 X102.50 Y99.70
G0 X102.50 Y99.88
G1 F1320 X102.50 Y89.92 E67.30074
G0 F9000 X102.50 Y90.10
G0 X107.49 Y90.20
G0 X107.50 Y90.03
G1 F1320 X107.50 Y99.77 E67.48511
;LAYER:2
G0 F9000 X89.75 Y114.75 Z0.85
;TYPE:WALL-OUTER
G1 F1440 X75.25 Y114.75 E67.75951
G1 X75.25 Y75.25 E68.50703
G1 X89.75 Y75.25 E68.78143
G1 X89.75 Y114.75 E69.52895
G0 F9000 X89.47 Y114.57
;TYPE:FILL
G1 F1440 X75.42 Y100.53 E69.90488
G0 F9000 X75.42 Y101.23
G1 F1440 X88.76 Y114.57 E70.26189
G0 F9000 X88.06 Y114.57
G1 F1440 X75.42 Y101.94 E70.59998
G0 F9000 X75.42 Y102.65
G1 F1440 X87.35 Y114.57 E70.91914
G0 F9000 X86.64 Y114.57
G1 F1440 X75.42 Y103.36 E71.21938
G0 F9000 X75.42 Y104.06
G1 F1440 X85.94 Y114.57 E71.50071
G0 F9000 X85.23 Y114.57
G1 F1440 X75.42 Y104.77 E71.76309
G0 F9000 X75.42 Y105.48
G1 F1440 X84.52 Y114.57 E72.00656
G0 F9000 X83.81 Y114.57
G1 F1440 X75.42 Y106.18 E72.23109
G0 F9000 X75.42 Y106.89
G1 F1440 X83.11 Y114.57 E72.43670
G0 F9000 X82.40 Y114.57
G1 F1440 X75.42 Y107.60 E72.62339
G0 F9000 X75.42 Y108.31
G1 F1440 X81.69 Y114.57 E72.79115
G0 F9000 X80.99 Y114.57
G1 F1440 X75.42 Y109.01 E72.94000
G0 F9000 X75.42 Y109.72
G1 F1440 X80.28 Y114.57 E73.06992
G0 F9000 X79.57 Y114.57
G1 F1440 X75.42 Y110.43 E73.18092
G0 F9000 X75.42 Y111.13
G1 F1440 X78.86 Y114.57 E73.27300
G0 F9000 X78.16 Y114.57
G1 F1440 X75.42 Y111.84 E73.34614
G0 F9000 X75.42 Y112.55
G1 F1440 X77.45 Y114.57 E73.40035
G0 F9000 X76.74 Y114.57
G1 F1440 X75.42 Y113.25 E73.43564
G0 F9000 X75.42 Y113.96
G1 F1440 X76.04 Y114.57 E73.45200
G0 F9000 X76.04 Y114.40
G0 X89.40 Y113.97
G0 X89.57 Y113.97
G1 F1440 X75.42 Y99.82 E73.83070
G0 F9000 X75.42 Y99.11
G1 F1440 X89.57 Y113.26 E74.20939
G0 F9000 X89.57 Y112.56
G1 F1440 X75.42 Y98.41 E74.58809
G0 F9000 X75.42 Y97.70
G1 F1440 X89.57 Y111.85 E74.96679
G0 F9000 X89.57 Y111.14
G1 F1440 X75.42 Y96.99 E75.34549
G0 F9000 X75.42 Y96.28
G1 F1440 X89.57 Y110.43 E75.72419
G0 F9000 X89.57 Y109.73
G1 F1440 X75.42 Y95.58 E76.10289
G0 F9000 X75.42 Y94.87
G1 F1440 X89.57 Y109.02 E76.48159
G0 F9000 X89.57 Y108.31
G1 F1440 X75.42 Y94.16 E76.86029
G0 F9000 X75.42 Y93.46
G1 F1440 X89.57 Y107.61 E77.23899
G0 F9000 X89.57 Y106.90
G1 F1440 X75.42 Y92.75 E77.61768
G0 F9000 X75.42 Y92.04
G1 F1440 X89.57 Y106.19 E77.99638
G0 F9000 X89.57 Y105.48
G1 F1440 X75.42 Y91.33 E78.37508
G0 F9000 X75.42 Y90.63
G1 F1440 X89.57 Y104.78 E78.75378
G0 F9000 X89.57 Y104.07
G1 F1440 X75.42 Y89.92 E79.13248
G0 F9000 X75.42 Y89.21
G1 F1440 X89.57 Y103.36 E79.51118
G0 F9000 X89.57 Y102.66
G1 F1440 X75.42 Y88.51 E79.88988
G0 F9000 X75.42 Y87.80
G1 F1440 X89.57 Y101.95 E80.26858
G0 F9000 X89.57 Y101.24
G1 F1440 X75.42 Y87.09 E80.64728
G0 F9000 X75.42 Y86.39
G1 F1440 X89.57 Y100.53 E81.02598
G0 F9000 X89.57 Y99.83
G1 F1440 X75.42 Y85.68 E81.40467
G0 F9000 X75.42 Y84.97
G1 F1440 X89.57 Y99.12 E81.78337
G0 F9000 X89.57 Y98.41
G1 F1440 X75.42 Y84.26 E82.16207
G0 F9000 X75.42 Y83.56
G1 F1440 X89.57 Y97.71 E82.54077
G0 F9000 X89.57 Y97.00
G1 F1440 X75.42 Y82.85 E82.91947
G0 F9000 X75.42 Y82.14
G1 F1440 X89.57 Y96.29 E83.29817
G0 F9000 X89.57 Y95.58
G1 F1440 X75.42 Y81.44 E83.67687
